X:1
T:[ID 11-14a]
T:[ID 11-14a]
T:Bezeichnung standardisiert: Polonaise Polonoise
T:Urheber unbekannt Datum in der hier transkribierten schriftlichen Quelle: vermutlich um 1800
C:Urheber unbekannt
C:Datum in der hier transkribierten schriftlichen Quelle: vermutlich um 1800
L:1/8
M:3/4
K:D
V:1 treble 
V:1
"^SecXI,14b" f>a{d} c2 d2 | (A/c/)(e/g/) f/a/c/e/ d2 | g2 b/a/g/f/ e/d/c/B/ | %3
 c2 a/g/f/e/ d/c/B/A/ | (Bg)(fG)(AB) | A/G/F/E/ D4 :: e>f eeae | ed{d} c4 | d>e ddbd | dc{c} B4 | %10
 (c/A/)(e/c/) aefA | c/B/A/^G/ A2 A2 | d'2 a2 a2 | b2{a} g4 | a2 f2 f2 | g2{f} e4 | d A2 B2 =c | %17
 Bb/a/ g/f/e/d/{d} c2 | d A2 A fA | B2{A} G4 | A F2 F dF | G2{F} E4 | %22
 (F/D/)(A/F/) (c/A/)(f/c/) a>d | f/e/d/c/ d2 D2 :| %24

